assets/images/svg/svg-menu-swap.svg

<svg width="30" height="30" viewBox="0 0 30 30" fill="none" xmlns="http://www.w3.org/2000/svg">
<path d="M23.9542 15.9497V16.0296C23.8432 17.7734 23.2367 19.4489 22.2066 20.858C21.1764 22.2671 19.7656 23.351 18.1409 23.9814C16.5162 24.6118 14.7455 24.7625 13.0381 24.4157C11.3308 24.0688 9.75808 23.2389 8.50598 22.024L8.11753 21.7542L5.95618 23.9222V17.4783L9.79085 17.4283C10.226 18.655 11.079 19.6881 12.1995 20.3453C13.32 21.0026 14.6359 21.2418 15.9151 21.0208C17.1943 20.7998 18.3545 20.1327 19.1912 19.1373C20.0279 18.1419 20.4871 16.8821 20.4881 15.5801C20.5023 15.2647 20.4444 14.9503 20.3187 14.6609L24.8407 14.581L24.99 5L21.8526 8.25694C20.4476 6.98888 18.7147 6.1439 16.8526 5.81902C14.9906 5.49414 13.075 5.70254 11.3256 6.42026C9.57632 7.13799 8.06422 8.33594 6.96294 9.87664C5.86166 11.4173 5.21584 13.2383 5.09961 15.1305V15.3203H5.94623L6.0259 15.2104V15.1305C6.13692 13.3867 6.74336 11.7112 7.77351 10.3021C8.80366 8.89297 10.2145 7.80914 11.8392 7.1787C13.4639 6.54827 15.2346 6.39759 16.9419 6.74445C18.6493 7.09132 20.222 7.92124 21.4741 9.13612L21.8526 9.39589L24.014 7.23791V13.6818H20.1892C19.7544 12.456 18.9022 11.4234 17.7827 10.7661C16.6633 10.1087 15.3485 9.86873 14.0699 10.0884C12.7914 10.3082 11.6311 10.9735 10.7937 11.9671C9.95623 12.9608 9.49528 14.219 9.49204 15.5201C9.47699 15.8387 9.53491 16.1566 9.66136 16.4492L5.13944 16.5292L5 26.1101L8.13746 22.8532C9.53294 24.1129 11.2523 24.9552 13.1006 25.2849C14.949 25.6146 16.8524 25.4183 18.5953 24.7184C20.3381 24.0185 21.8507 22.843 22.9616 21.3249C24.0724 19.8069 24.7372 18.0071 24.8805 16.1295V15.9397L24.0339 15.8898L23.9542 15.9497ZM14.99 11.0343C15.8966 11.0343 16.7829 11.3041 17.5365 11.8095C18.2902 12.315 18.8774 13.0333 19.2239 13.8736C19.5704 14.714 19.6605 15.6385 19.4829 16.5303C19.3054 17.422 18.868 18.2409 18.2262 18.8832C17.5845 19.5255 16.7672 19.9624 15.8778 20.1386C14.9884 20.3148 14.0668 20.2224 13.2298 19.873C12.3928 19.5236 11.6779 18.933 11.1757 18.176C10.6734 17.4189 10.4064 16.5294 10.4084 15.62C10.4097 15.0165 10.5295 14.4192 10.7609 13.8621C10.9924 13.305 11.331 12.7991 11.7573 12.3733C12.1837 11.9475 12.6895 11.6101 13.2459 11.3803C13.8023 11.1506 14.3983 11.033 15 11.0343H14.99Z" fill="white"/>
<path d="M15.3587 17.0189C15.2404 17.0607 15.1156 17.081 14.9901 17.0788C14.5404 17.0534 14.1078 16.8971 13.7451 16.6293L13.5957 16.5194L13.1077 17.2187V17.3486H13.1774C13.5758 17.6583 14.0586 17.8395 14.5619 17.8681H14.6515L14.7411 19.057H15.5878V17.8581C15.8272 17.7762 16.043 17.637 16.2166 17.4524C16.3902 17.2679 16.5162 17.0436 16.5838 16.7991C16.6462 16.5458 16.6245 16.279 16.522 16.0392C16.4196 15.7994 16.2419 15.5997 16.016 15.4703C15.7171 15.2676 15.3768 15.1345 15.02 15.0807C14.6216 15.0008 14.3826 14.8509 14.3029 14.6311C14.273 14.5367 14.2742 14.4351 14.3065 14.3415C14.3389 14.2479 14.4005 14.1673 14.4822 14.1116C14.6586 13.9834 14.872 13.9167 15.0897 13.9218C15.4974 13.9432 15.8938 14.0631 16.2451 14.2715L16.4144 14.3714L16.8527 13.6421V13.5222L16.783 13.4722C16.4094 13.2523 15.99 13.1223 15.5579 13.0926L15.4782 11.9736L14.6216 12.0536L14.6913 13.0526C14.4284 13.104 14.1801 13.2132 13.9642 13.3723C13.7242 13.5499 13.5473 13.8001 13.4595 14.086C13.3716 14.3719 13.3775 14.6785 13.4762 14.9608C13.6024 15.2382 13.7999 15.477 14.0484 15.6526C14.297 15.8281 14.5876 15.9342 14.8905 15.9599C15.1036 15.9992 15.3068 16.0808 15.4881 16.1997C15.7371 16.3795 15.7073 16.4794 15.6973 16.5194C15.689 16.625 15.6534 16.7266 15.594 16.8142C15.5347 16.9018 15.4535 16.9723 15.3587 17.0189Z" fill="white"/>
</svg>

<svg width="30" height="30" fill="none" xmlns="http://www.w3.org/2000/svg">
  <path d="M23.954 15.95v.08a9.169 9.169 0 0 1-1.747 4.828 9.127 9.127 0 0 1-4.066 3.123 9.098 9.098 0 0 1-9.635-1.957l-.388-.27-2.162 2.168v-6.444l3.835-.05a5.52 5.52 0 0 0 2.409 2.917 5.494 5.494 0 0 0 6.991-1.208 5.535 5.535 0 0 0 1.297-3.557 2.073 2.073 0 0 0-.17-.92l4.523-.079L24.99 5l-3.137 3.257A10.022 10.022 0 0 0 11.326 6.42a10.055 10.055 0 0 0-4.363 3.457A10.1 10.1 0 0 0 5.1 15.13v.19h.846l.08-.11v-.08a9.169 9.169 0 0 1 1.748-4.828 9.127 9.127 0 0 1 4.065-3.123 9.097 9.097 0 0 1 9.635 1.957l.379.26 2.161-2.158v6.444h-3.825a5.52 5.52 0 0 0-2.406-2.916 5.494 5.494 0 0 0-6.99 1.201 5.535 5.535 0 0 0-1.301 3.553c-.015.319.043.637.17.93l-4.523.08L5 26.11l3.137-3.257a10.021 10.021 0 0 0 10.458 1.865 10.054 10.054 0 0 0 4.367-3.393 10.1 10.1 0 0 0 1.919-5.195v-.19l-.847-.05-.08.06Zm-8.964-4.916c.907 0 1.793.27 2.546.775a4.609 4.609 0 0 1 .69 7.074 4.577 4.577 0 0 1-4.996.99 4.585 4.585 0 0 1-2.054-1.697 4.605 4.605 0 0 1 2.07-6.796A4.57 4.57 0 0 1 15 11.034h-.01Z" fill="#fff"/>
  <path d="M15.359 17.019a1.051 1.051 0 0 1-.369.06 2.316 2.316 0 0 1-1.245-.45l-.15-.11-.487.7v.13h.07c.398.31.88.49 1.384.52h.09l.09 1.188h.846v-1.199a1.553 1.553 0 0 0 .996-1.059 1.202 1.202 0 0 0-.568-1.329 2.416 2.416 0 0 0-.996-.39c-.398-.08-.637-.23-.717-.449a.461.461 0 0 1 .18-.52.994.994 0 0 1 .607-.19c.407.022.804.142 1.155.35l.17.1.438-.729v-.12l-.07-.05a2.793 2.793 0 0 0-1.225-.38l-.08-1.118-.856.08.07.999c-.264.051-.512.16-.728.32a1.399 1.399 0 0 0-.488 1.588 1.718 1.718 0 0 0 1.414.999c.214.04.417.12.598.24.25.18.22.28.21.32a.61.61 0 0 1-.34.499Z" fill="#fff"/>
</svg>
